X:1
T:Black-Jack Gypsy (2)
M:4/4
L:1/8
K:G
 d2 d2 ee d2| BB AA G3 B| dd d2 e2 d2| B4 e3 B| d2 d2 e2 dd| B2 A2 G3 G|\
 A2 AA D2 EE| G4 B4| A2 A2 D2 EE| G4 G4|
